X: 39132
T: Sweet Is The Name Of Peggy
R: reel
M: 4/4
K: Emixolydian
eBGE GBec|~=d2 AF D2 B/c/d|eBGE GBeg|1 agfa gef^d:|2 agfa ge ~e2||
ebgb ebgb|=defg a2 gf|ebgb ebge|=defa gee^d|
ebgb ebgb|=defg a2 fa|bgaf gef^d|egfa gbaf||

